X:1
T:Missa a 4 de quinto tono
T:Punto bajo
T:Luis Serra (c.1680-1759)
T:From the Música Colonial archive in Guatemala, manuscript 9-010
T:Missa a 4 de quinto tono Punto bajo
T:1. Kyrie
T:Copyright © 
T:Copyright © 
T:Copyright © 
T:Copyright © 
T:Copyright © 
C:Luis Serra (c.1680-1759)
Z:From the Música Colonial archive
Z:in Guatemala, manuscript 9-010
Z:Copyright ©
%%score [ 1 2 3 4 ]
L:1/8
M:4/4
K:Bb
V:1 treble nm="Soprano" snm="S."
V:2 treble-8 transpose=-12 nm="Alto" snm="A."
V:3 treble-8 transpose=-12 nm="Tenor" snm="T."
V:4 bass nm="Bass" snm="B."
V:1
 B4 G4 | B2 F2 G4 | F3 G A"^ed. Jonathan Goodliffe, with emendations by Mick Swithinbank"B c2- | %3
w: Ky- ri-|e _ _|_ _ _ _ _|
 c2 B2 A2 B2- | B2 A2 B2 F2- | FE D2 G4 | F2 A2 B4 | A2 c3 B AG | F4 F2 F2 | c4 F4 | z8 | z4 c4 | %12
w: * * * e-|* lei- son, ky-|* ri- e _|_ e- lei-||* son, e-|lei- son,||ky-|
 A4 B2 F2 | G4 F4 | z4 F4 | D4 F2 f2- | f2 e4 d2 | c4 z4 | B4 G4 | B2 F2 G4- | G4 B2 F2- | %21
w: ri- e e-|lei- son,|ky-|ri- e _|_ e- lei-|son,|ky- ri-|e e- lei-|* son, e-|
 F2 E2 D4 | C4 F2 B2- | B2 A2 G4 | _A8 | G4 F4- | F4 !fermata!F12 ||[M:4/4] B4 A2 F2- | %28
w: |lei- son, ky-|* ri- e|e-|le- i-|* son.|Chris- te _|
 FG A2 BA GF | G2 F2 GA B2- | B2 A2 G4 | F4 f4 | d2 B3 c d2 | ed cB c2 d2 | c4 A2 F2- | %35
w: _ _ _ _ _ _ _||* e- lei-|son, Chris-|te _ _ _|_ _ _ _ e- lei-|son, Chris- te|
 FG A2 BA GF | G8 | F2 f4 d2 | B2 F2 G4 | G2 c2 c4 | !fermata!c8 ||[M:4/4] z8 | z8 | z8 | z8 | %45
w: _ _ _ e- * * *|lei-|son, Chris- te|_ e- lei-|son, e- lei-|son.|||||
 z2 B2 A2 G2 | F2 E2 D4 | C2 c4 B2 | A2 B4 A2 | B2 F4 F2 | G3 A B4 | z4 B4 | G4 B2 F2 | G4 F3 G | %54
w: Ky- ri- e|_ e- lei-|son, ky- ri-|e _ e-|lei- son, e-|lei- * son,|ky-|ri- e e-|lei- * *|
 AB c4 B2 | A2 B4 A2 | B2 e2 d2 c2 | BA G2 F4 | c4 F2 f2- | ff e4 d2 | cB AG F4- | %61
w: ||son, ky- ri- e|_ _ e- lei-|* son, ky-|* ri- e _|e- * * * lei-|
 F4 !fermata!F8 |] %62
w: * son.|
V:2
 z8 | z8 | z4 f4 | d4 f2 B2 | c4 B3 c | de f4 e2 | d2 f4 =e2 | f4 c4 | d4 c2 d2 | e4 d3 f | %10
w: ||Ky-|ri- e _|_ _ _||* e- *|lei- son,|ky- ri- e|_ _ _|
 f4 c2 e2 | f4 z4 | f4 d4 | e4 d2 f2- | f2 e2 d2 c2 | g4 c4 | z8 | f4 d4 | f2 B2 c4 | B3 c de f2- | %20
w: * e- lei-|son,|ky- ri-|e _ _|_ _ _ e-|lei- son,||ky- ri-|e e- lei-||
 f2 e2 d4 | g4 f2 f2- | f2 e2 d2 d2- | d2 c3 d e2 | f2 g2 f2 f2- | f2 e4 d2 | c4 !fermata!d12 || %27
w: * * son,|ky- ri- e|_ e- lei- *||* * son, e-||lei- son.|
[M:4/4] z8 | z4 f4 | d2 B3 c d2 | ed cB cd e2- | e2 d2 c4 | B4 z4 | z4 f4 | A2 F3 G A2 | %35
w: |Chris-|te _ _ _|_ _ _ _ _ _ _|* e- lei-|son,|Chris-|te _ _ _|
 BA GF G4- | G2 B2 cB AG | A4 f4 | d2 B3 c d2 | =e2 f4 e2 | !fermata!f8 ||[M:4/4] f4 d4 | %42
w: _ _ _ _ _|* e- lei- * * *|son, Chris-|te _ _ _|_ e- lei-|son.|Ky- ri-|
 f2 B2 c4 | B3 c de f2- | f2 e2 d2 f2- | f2 =e2 f4 | z8 | z8 | z4 z2 e2 | d2 c2 B2 _a2 | g4 f4 | %51
w: e _ _|_ _ _ _ _|* * * e-|* lei- son,|||ky-|ri- e _ _|e- lei-|
 e2 d2 e2 d2 | c2 e4 d2 | e4 z4 | f4 d4 | f2 B2 c4 | B3 c de f2- | f2 e2 d2 f2- | f2 e2 d3 c | %59
w: son, e- * *|* * lei-|son,|ky- ri-|e _ _|_ _ _ _ _||* * e- lei-|
 B4 z2 f2- | ff e4 d2 | c4 !fermata!d8 |] %62
w: son, ky-|* ri- e e-|lei- son.|
V:3
 z8 | z8 | z8 | z8 | z8 | d4 G4 | B2 F2 G4 | F3 G AB c2- | c2 B2 A2 B2- | B2 A2 B2 d2- | %10
w: |||||Ky- ri-|e _ _|_ _ _ _ _|* * * e|_ lei- son, ky-|
 d2 cB AB c2 | B2 A2 G4 | F4 B4 | G4 B2 F2 | G4 FG A2 | Bc B4 A2- | A2 G2 A2 B2 | cd c4 B2 | %18
w: * ri- * e _ e-|* * lei-|son, ky-|ri- e _|_ _ _ _|||e- * lei- son,|
 d4 e4 | d3 c B4 | c4 B4 | z4 B4 | G4 B2 F2- | FG AB c4 | B8 | B2 cB A2 B2- | B2 A2 !fermata!B12 || %27
w: ky- ri-|e _ e-|lei- son,|ky-|ri- e e-|* * * * lei-|son,|e- * * * *|* lei- son.|
[M:4/4] z8 | z8 | z4 B4 | G2 E3 F G2 | A2 B4 _A2- | A2 GF G=A B2- | B2 AG A2 B2 | z8 | g4 d2 B2- | %36
w: ||Chris-|te _ _ _|_ _ _||* e- * lei- son,||Chris- te _|
 Bc d2 ed cB | c4 B2 z2 | B4 G2 B2- | B2 A2 G4 | !fermata!A8 ||[M:4/4] z8 | z8 | z4 B4 | G4 B2 F2 | %45
w: _ _ _ e- * * *|lei- son,|Chris- te _|_ e- lei-|son.|||Ky-|ri- e e-|
 G4 F3 G | AB c4 B2 | A2 c2 d4 | c2 d2 e2 c2 | F4 z4 | z2 e2 d2 c2 | B2 _A2 G2 F2 | E4 F4 | %53
w: lei- * *||||son,|ky- ri- e|_ _ _ _|lei- *|
 E4 z2 B2- | B2 A2 B2 G2 | F2 G2 F2 F2- | F2 E2 F4 | z4 B4 | G4 B2 F2 | G4 F3 G | AB c4 B2- | %61
w: son, ky-|* ri- e _|e- lei- son, e-|* lei- son,|ky-|ri- e e-|lei- * *||
 B2 A2 !fermata!B8 |] %62
w: * * son.|
V:4
 z8 | z8 | z8 | z8 | z8 | z8 | z8 | z4 F,4 | D,4 F,2 B,,2 | C,4 B,,3 C, | D,E, F,4 E,2 | %11
w: |||||||Ky-|ri- e _|_ _ _||
 D,2 F,4 =E,2 | F,4 z4 | z4 B,,4 | G,,4 B,,2 F,,2 | G,,4 F,,3 G,, | A,,B,, C,4 B,,2- | %17
w: * e- lei-|son,|ky-|ri- e _|_ _ _|* * * e-|
 B,,2 A,,2 B,,4 | z8 | z8 | z4 B,4 | G,4 B,2 B,,2 | C,4 B,,3 C, | D,E, F,4 E,2 | D,2 E,4 D,2 | %25
w: * lei- son,|||ky-|ri- e e-|lei- * *|||
 E,4 F,4- | F,4 !fermata!B,,12 ||[M:4/4] z8 | F,4 D,2 B,,2- | B,,C, D,2 E,D, C,B,, | C,8 | %31
w: |* son.||Chris- te _|_ _ _ e- * * *|lei-|
 F,4 F,4 | B,,2 E,4 D,2 | C,D, E,4 D,2 | F,4 F,,4 | z8 | z8 | F,4 D,2 B,,2- | %38
w: son, Chris-|te _ _|_ _ _ e-|lei- son,|||Chris- te _|
 B,,C, D,2 E,D, C,B,, | C,8 | !fermata!F,8 ||[M:4/4] z4 z2 B,2 | A,2 G,2 F,2 E,2 | D,2 C,2 B,,4 | %44
w: _ _ _ e- * * *|lei-|son.|Ky-|ri- e _ _|_ _ _|
 C,4 D,4 | C,4 F,,4 | z8 | F,4 D,4 | F,2 B,,2 C,4 | B,,3 C, D,E, F,2- | F,2 E,2 B,2 _A,2 | %51
w: * e-|lei- son,||ky- ri-|e e- lei-|||
 G,2 F,2 E,2 B,,2 | C,4 B,,4 | z2 E,4 D,2 | F,4 G,4 | z4 z2 E,2 | D,2 C,2 B,,2 A,,2 | %57
w: |* son,|e- *|lei- son,|ky-|ri- e _ e-|
 G,,4 B,,2 B,,2 | C,4 B,,4 | E,2 G,,2 A,,2 B,,2 | F,,8- | F,,4 !fermata!B,,8 |] %62
w: lei- son, e-|lei- *|son, e- * *|lei-|* son.|

